icons/1_Primary/LibreNMS.svg

<svg xmlns="http://www.w3.org/2000/svg" width="1024" height="1024" fill="none">
   <g clip-path="url(#a)">
      <path fill="#FF837D" d="M512 1024c282.77 0 512-229.23 512-512S794.77 0 512 0 0 229.23 0 512s229.23 512 512 512Z"/>
      <path fill="#fff" d="m547.06 238-22.25 20.89 54.34 52.64L600 290.64 547.06 238Zm-62.32 1.7-52.64 52.64 20.9 20.72 52.64-52.64-20.9-20.72Zm155.72 91.36-20.89 21.06 52.64 52.64 20.89-21.06-52.64-52.64ZM578 332.42l-53 52.64 21.23 20.89 52.64-52.64L578 332.42Zm-126.85 1.7-20.38 21.06 52.64 52.64 20.38-21.06-52.64-52.64Zm-62.7 1.88-52.64 52.64 21.06 20.89 52.64-52.64L388.45 336Zm344.9 88.14-20.72 21.06 52.64 52.64L786 476.76l-52.64-52.64-.01.02Zm-62.66 1.36L618 478.12l21.06 20.72 52.64-52.64-21.06-20.72.05.02Zm-126.51 1.7-20.72 21.06 52.64 52.64 20.72-21.06-52.64-52.64Zm-62.84 1.8-52.64 52.69 21.06 20.72 52.64-52.64L481.34 429Zm-126.17 1.19-20.89 20.89 52.64 52.64 20.89-20.89-52.64-52.64Zm-62.83 2-52.64 52.72 20.89 20.72 52.64-53-20.89-20.38v-.06Zm471.25 86.01-52.64 53 19.36 20.55 54.34-52.64-21.06-20.91Zm-126.51 2-22.24 21.06 54.34 52.64 20.89-21.06-53-52.64h.01Zm-62.49 1.7-53 52.64 21.06 20.72 52.64-52.64-20.72-20.72h.02Zm-126.51 1.36-20.72 20.89L480 596.82l20.72-20.89-52.64-52.64v-.03Zm-63 1.7-52.64 52.64 21.06 20.89 52.64-52.64L385.08 525v-.04Zm-126.17 1.36L238 547.07l52.64 52.64L311.55 579l-52.64-52.68Zm408.41 88.3-52.64 53 20.72 22.24 53-54.34-21.06-20.89-.02-.01Zm-126.17 1.7-20.72 20.89 52.64 52.64L593.79 669l-52.64-52.64v-.04Zm-63 1.7-52.65 52.67 20.89 20.72L499 638.77l-20.89-20.72.04-.03Zm-126.34 1.36-20.72 20.72 53 53 20.72-21.06-53-52.64v-.02Zm219.4 91.7-53 52.64 21.23 20.72 52.64-53-20.87-20.36Zm-126 1.36-20.89 20.89L477 786l20.89-20.89-52.68-52.67Z"/>
   </g>
   <defs>
      <clipPath id="a">
         <path fill="#fff" d="M0 0h1024v1024H0z"/>
      </clipPath>
   </defs>
</svg>

<svg width="1024" height="1024" viewBox="0 0 1024 1024" fill="none" xmlns="http://www.w3.org/2000/svg">
<g clip-path="url(#clip0_2_2670)">
<path d="M512 1024C794.77 1024 1024 794.77 1024 512C1024 229.23 794.77 0 512 0C229.23 0 0 229.23 0 512C0 794.77 229.23 1024 512 1024Z" fill="#FF837D"/>
<path d="M547.06 238L524.81 258.89L579.15 311.53L600 290.64L547.06 238ZM484.74 239.7L432.1 292.34L453 313.06L505.64 260.42L484.74 239.7ZM640.46 331.06L619.57 352.12L672.21 404.76L693.1 383.7L640.46 331.06ZM578 332.42L525 385.06L546.23 405.95L598.87 353.31L578 332.42ZM451.15 334.12L430.77 355.18L483.41 407.82L503.79 386.76L451.15 334.12ZM388.45 336L335.81 388.64L356.87 409.53L409.51 356.89L388.45 336ZM733.35 424.14L712.63 445.2L765.27 497.84L786 476.76L733.36 424.12L733.35 424.14ZM670.69 425.5L618 478.12L639.06 498.84L691.7 446.2L670.64 425.48L670.69 425.5ZM544.18 427.2L523.46 448.26L576.1 500.9L596.82 479.84L544.18 427.2ZM481.34 429L428.7 481.69L449.76 502.41L502.4 449.77L481.34 429ZM355.17 430.19L334.28 451.08L386.92 503.72L407.81 482.83L355.17 430.19ZM292.34 432.19L239.7 484.91L260.59 505.63L313.23 452.63L292.34 432.25V432.19ZM763.59 518.2L710.95 571.2L730.31 591.75L784.65 539.11L763.59 518.2ZM637.08 520.2L614.84 541.26L669.18 593.9L690.07 572.84L637.07 520.2H637.08ZM574.59 521.9L521.59 574.54L542.65 595.26L595.29 542.62L574.57 521.9H574.59ZM448.08 523.26L427.36 544.15L480 596.82L500.72 575.93L448.08 523.29V523.26ZM385.08 524.96L332.44 577.6L353.5 598.49L406.14 545.85L385.08 525V524.96ZM258.91 526.32L238 547.07L290.64 599.71L311.55 579L258.91 526.32ZM667.32 614.62L614.68 667.62L635.4 689.86L688.4 635.52L667.34 614.63L667.32 614.62ZM541.15 616.32L520.43 637.21L573.07 689.85L593.79 669L541.15 616.36V616.32ZM478.15 618.02L425.5 670.69L446.39 691.41L499 638.77L478.11 618.05L478.15 618.02ZM351.81 619.38L331.09 640.1L384.09 693.1L404.81 672.04L351.81 619.4V619.38ZM571.21 711.08L518.21 763.72L539.44 784.44L592.08 731.44L571.21 711.08ZM445.21 712.44L424.32 733.33L477 786L497.89 765.11L445.21 712.44Z" fill="white"/>
</g>
<defs>
<clipPath id="clip0_2_2670">
<rect width="1024" height="1024" fill="white"/>
</clipPath>
</defs>
</svg>
